svgs/curve.svg

<svg width="192" height="192" viewBox="0 0 192 192" fill="none" xmlns="http://www.w3.org/2000/svg">
<path d="M120.457 143.5L133.452 162.058ZM115.152 46.1322L135.973 31.5526ZM115.152 46.1322C109.04 43.7794 102.549 42.57 96 42.5643C66.4881 42.5639 42.5639 66.4881 42.5643 96C42.5639 125.512 66.4881 149.436 96 149.436C104.509 149.433 112.894 147.397 120.457 143.5M135.973 31.5526C123.983 24.0582 110.14 20.0573 96 20C54.0262 19.9995 19.9995 54.0262 20 96C19.9995 137.974 54.0262 172 96 172C109.133 171.978 122.037 168.553 133.452 162.058" stroke="black" stroke-width="8" stroke-linecap="round" stroke-linejoin="round"/>
<path d="M147.427 40.0431C152.804 44.9844 157.441 50.6748 161.194 56.939L105.224 96.1292L92.7576 78.3252L147.427 40.0431Z" stroke="black" stroke-width="8" stroke-linecap="round" stroke-linejoin="round"/>
<path d="M167.017 68.9364L112.777 106.915L125.244 124.719L171.897 92.0535C171.485 84.1405 169.839 76.3406 167.017 68.9364Z" stroke="black" stroke-width="8" stroke-linecap="round" stroke-linejoin="round"/>
<path d="M170.883 108.839L132.796 135.51L145.494 153.641L145.52 153.622C158.925 142.098 167.894 126.262 170.883 108.839Z" stroke="black" stroke-width="8" stroke-linecap="round" stroke-linejoin="round"/>
</svg>

<svg xmlns="http://www.w3.org/2000/svg" width="192" height="192" fill="none" viewBox="0 0 192 192"><path stroke="#000" stroke-linecap="round" stroke-linejoin="round" stroke-width="8" d="m120.457 143.5 12.995 18.558Zm-5.305-97.368 20.821-14.58Zm0 0A53.437 53.437 0 0 0 96 42.564c-29.512 0-53.436 23.924-53.436 53.436S66.488 149.436 96 149.436a53.437 53.437 0 0 0 24.457-5.936m15.516-111.947A75.997 75.997 0 0 0 96 20c-41.974 0-76 34.026-76 76s34.026 76 76 76a75.99 75.99 0 0 0 37.452-9.942"/><path stroke="#000" stroke-linecap="round" stroke-linejoin="round" stroke-width="8" d="M147.427 40.043a75.983 75.983 0 0 1 13.767 16.896l-55.97 39.19-12.466-17.804 54.669-38.282ZM167.017 68.936l-54.24 37.979 12.467 17.804 46.653-32.665a76.005 76.005 0 0 0-4.88-23.118ZM170.883 108.839l-38.087 26.671 12.698 18.131.026-.019a76.004 76.004 0 0 0 25.363-44.783Z"/></svg>
